X:11293
T:Mozarts Waltz. JC.183
M:3/8
L:1/8
Q:35
S:John Clare,Poet,Helpstone (1793-1864)
R:Waltz
O:England
A:Northamptonshire
N:
Z:P Headford
K:G
D|GGD|GGD|GGD|G2G/A/|BBA|BBA|BBA|B2B/c/|!
dgd|dBd|cAc|cB B/c/|dgd|dBd|cAc|cBA|!
BBB|AAA|^ccc|d2D|GG/A/B/G/|EEE|cAF|G2|!
:B|cc/B/c/d/|BBc|cc/B/c/d/|B2B|cc/B/c/e/|dBd|cBA|G2:|!
|z|G/A/B/c/d/c/|BBA|G/A/B/c/d/c/|BBA|G2d|eg/e/g/e/|dBd|cAF|G2||
